X:1
T:Make Somebody Happy Today
T:Charles Hutchinson Gabriel
T:Make Somebody Happy Today
T:Public Domain
T:Public Domain
T:Public Domain
C:Charles Hutchinson Gabriel
Z:Public Domain
%%score ( 1 2 ) ( 3 4 )
L:1/8
M:6/8
K:Eb
V:1 treble 
V:2 treble 
V:3 bass 
V:4 bass 
V:1
 [EG][E^F][EG] E[E=F][EG] | [GB][^F=A][Fc] [GB]2 [GB] | [FB][DF][EG] [FA]<[EG][DF] | %3
w: 1.~If your own sor- rows you|to for- get, Make some-|bo- dy hap- py to- day;|
w: 2.~If you seek plea- sure no|ble can mar, Make some-|bo- dy hap- py to- day;|
w: 3.~Do not com- plain that you’ve|thing to give, Make some-|bo- dy hap- py to- day;|
 [EG]3- [EG]2 z | [EG][E^F][EG] E[E=F][EG] | [GB][^F=A][Fc] [GB]2 [Ge] | %6
w: If *|in your heart you would know|re- gret, Make some- bo-|
w: You’ll *|find it wait- ing you, right|you are, Make some- bo-|
w: Do *|your whole du- ty, and preach|you live, Make some- bo-|
 [Fd][Ec][DB] [Ec]<[EF][Ec] | [DB]3- [DB]2 z | [Dc][Dc][Dc] [Dc][B,D][DF] | [Dc][Dc][Dc] [Dc]3 | %10
w: dy hap- py to- day. O-|thers *|near by you may be in|des- pair, Strugg- ling|
w: dy hap- py to- day. Is|your *|life dark- ened by hopes that|were vain? Go help|
w: dy hap- py to- day. Though|you *|have on- ly a smile, or|a flower, Give it,|
 [EB][EB][EB] [EB]E[EG] | [EB][EB][FB] [GB]3 | [Ec][Ec][Ec] [Ee][Ed][Ec] | %13
w: ’neath cross- es so hea- vy|bear; They may take|heart, if you show that you|
w: an- o- ther his goal to|tain! What you have|lost, by your help he may|
w: and speak of His love, of|power; You may cheer|ma- ny a pain- wear- y|
 [EB][E=A][EB] [Ec]2 [^Fe] | [Ge][GB][EG] [DB]<[DA][DF] | E3- E2 ||"^Refrain" [GB] | %17
w: care— Make some- bo- dy|hap- py to- day. * *|||
w: gain— Make some- bo- dy|hap- py to- day. Make some-|bo- *|hap-|
w: hour— Make some- bo- dy|hap- py to- day. * *|||
 [Ge][Gd][Gc] [GB]<[Gc][EG] | (G2 G [AB]2) [AB] | [Ad]>[Ac][GB] [FA][GB][FA] | [EG]3- [EG]2 E | %21
w: ||||
w: py to- day. O sing a|glad * * song|your way; The good that you|do * brings|
w: ||||
 [EG]>[E^F][EG] [DA]2 [DA] | [EB][E=A][EB] [Ec]2 [^Fe] | [Ge][GB][EG] [DB]<[DA][DF] | E3- E2 z |] %25
w: ||||
w: ing to you. Make some-|bo- dy hap- py to-|day. * * * * *||
w: ||||
V:2
 x3 E x2 | x6 | x6 | x6 | x3 E x2 | x6 | x6 | x6 | x6 | x6 | x4 E x | x6 | x6 | x6 | x6 | E3- E2 || %16
w: want||||no||||||to||||||
w: trou-||||where||||||at-|||||dy *|
w: no-||||as||||||His||||||
 x | x6 | B3- x3 | x6 | x5 E | x6 | x6 | x6 | E3- E2 x |] %25
w: |||||||||
w: ||on||bless-|||||
w: |||||||||
V:3
 [E,B,][E,=A,][E,B,] [E,G,][E,_A,][E,B,] | [E,E][E,E][E,E] [E,E]2 [E,E] | %2
 [B,,D][B,,B,][B,,B,] [B,,B,]<[B,,B,][B,,B,] | [E,B,]3- [E,B,]2 z | %4
 [E,B,][E,=A,][E,B,] [E,G,][E,_A,][E,B,] | [E,E][E,E][E,E] [E,E]2 [E,B,] | %6
 [F,B,][F,=A,][F,B,] [F,A,]<[F,A,]F, | [B,,F,]3- [B,,F,]2 z | %8
 [B,,A,][B,,A,][B,,A,] [B,,A,][B,,A,][B,,A,] | [B,,A,][B,,A,][B,,A,] [B,,A,]3 | %10
 [E,G,][E,G,][E,G,] [E,G,][E,G,][E,B,] | [E,G,][E,G,][E,B,] [E,B,]3 | A,A,A, [A,C][A,B,]A, | %13
 [G,B,][^F,C][G,B,] A,2 [=A,C] | B,[B,F]B, [B,,F,]<[B,,F,][B,,A,] | [E,G,]3- [E,G,]2 || [E,E] | %17
 [E,B,][E,B,][E,C] [E,E]<[E,E][E,B,] | ([E,C]2 [=E,^C] [F,D]2) [B,D] | [B,,B,]3 [B,,B,]2 [B,,B,] | %20
 ([E,B,][E,B,][E,B,] [E,B,]2) [E,G,] | [E,B,]>[E,=A,][E,A,] [F,B,]2 [F,B,] | %22
 [G,B,][^F,C][G,B,] A,2 [=A,C] | B,[B,E]B, [B,,F,]<[B,,F,][B,,A,] | [E,G,]3- [E,G,]2 z |] %25
V:4
 x6 | x6 | x6 | x6 | x6 | x6 | x5 F, | x6 | x6 | x6 | x6 | x6 | A,A,A, x A, x | x3 =A,2 x | %14
 B,B, x4 | x5 || x | x6 | x6 | x6 | x6 | x6 | x3 =A,2 x | B,B, x4 | x6 |] %25

